build/category/PostAutomatOutline.svg

<svg xmlns="http://www.w3.org/2000/svg" fill="none" viewBox="0 0 24 24" focusable="false"><path d="M0 0H24V24H0z"/><path fill="#74767B" fill-rule="evenodd" d="M4 7C4 5.34315 5.34315 4 7 4L17 4C18.6569 4 20 5.34315 20 7L20 18.7C20 19.418 19.418 20 18.7 20L5.3 20C4.58203 20 4 19.418 4 18.7L4 7ZM10.6501 5.3L7 5.3C6.06112 5.3 5.3 6.06112 5.3 7L5.3 8.21528C5.3 8.60188 5.6134 8.91528 6 8.91528L10.6501 8.91528C11.0367 8.91528 11.3501 8.60188 11.3501 8.21528L11.3501 6C11.3501 5.6134 11.0367 5.3 10.6501 5.3ZM13.3501 5.3L17 5.3C17.9389 5.3 18.7 6.06112 18.7 7L18.7 18C18.7 18.3866 18.3866 18.7 18 18.7L13.3501 18.7C12.9635 18.7 12.6501 18.3866 12.6501 18L12.6501 6C12.6501 5.6134 12.9635 5.3 13.3501 5.3ZM5.3 10.9153C5.3 10.5287 5.6134 10.2153 6 10.2153L10.6501 10.2153C11.0367 10.2153 11.3501 10.5287 11.3501 10.9153L11.3501 13.1307C11.3501 13.5173 11.0367 13.8307 10.6501 13.8307L6 13.8307C5.6134 13.8307 5.3 13.5173 5.3 13.1307L5.3 10.9153ZM13.9497 11.3968C13.9497 11.0102 14.2631 10.6968 14.6497 10.6968L16.6537 10.6968C17.0403 10.6968 17.3537 11.0102 17.3537 11.3968L17.3537 12.6031C17.3537 12.9897 17.0403 13.3031 16.6537 13.3031L14.6497 13.3031C14.2631 13.3031 13.9497 12.9897 13.9497 12.6031L13.9497 11.3968ZM5.3 18C5.3 18.3866 5.6134 18.7 6 18.7L10.6501 18.7C11.0367 18.7 11.3501 18.3866 11.3501 18L11.3501 15.8307C11.3501 15.4441 11.0367 15.1307 10.6501 15.1307L6 15.1307C5.6134 15.1307 5.3 15.4441 5.3 15.8307L5.3 18Z"/></svg>

<svg xmlns="http://www.w3.org/2000/svg" fill="none" viewBox="0 0 24 24" focusable="false"><path fill="#74767B" fill-rule="evenodd" d="M4 7c0-1.66 1.34-3 3-3h10c1.65 0 3 1.34 3 3v11.7c0 .71-.59 1.3-1.3 1.3H5.29C4.58 20 4 19.41 4 18.7zm6.64-1.7H7c-.94 0-1.71.76-1.71 1.7v1.21c0 .39.32.7.71.7h4.64c.39 0 .71-.31.71-.7V6c0-.39-.32-.7-.71-.7m2.71 0H17c.93 0 1.7.76 1.7 1.7v11c0 .38-.32.7-.7.7h-4.65a.71.71 0 0 1-.71-.7V6c0-.39.32-.7.71-.7m-8.06 5.61c0-.39.32-.7.71-.7h4.64c.39 0 .71.31.71.7v2.22c0 .38-.32.7-.71.7H6a.71.71 0 0 1-.71-.7zm8.65.48c0-.38.32-.7.7-.7h2.01c.39 0 .7.32.7.7v1.21c0 .38-.31.7-.7.7h-2.01c-.38 0-.7-.32-.7-.7zM5.29 18c0 .38.32.7.71.7h4.64c.39 0 .71-.32.71-.7v-2.17c0-.39-.32-.7-.71-.7H6c-.39 0-.71.31-.71.7z"/></svg>
